X: 20244
Q: "Lively, but not too fast."
M: C|
L: 1/8
K: F
(AG) |\
(f>g) |\
(ag)(fe) f4 | F2c2 (dc)(BA) | A2 G4 f>g |
(ag)(fe) f3d | c2f2 (gf)(ed) | c2 A4 f>g |\
(ag)(fe) f4 | F2c2 (dc)(BA) | A2 G4 A>G |\



